X:1
T:Title
%%score { ( 1 3 ) | 2 }
L:1/8
M:6/8
K:Bb
V:1 treble nm="Grand Piano"
V:3 treble 
V:2 bass 
V:1
 z3 z2[Q:1/4=100] [DF] | [DF]>[DF][DF] [EG][DF][_D=E] | [DF] [DB]2- [DB]2 [FB] | A>GF A>GF | %4
 [DB]3- [DB]2 [DF] | G>GG [GB][FA][EG] |[M:5/8] [DF][DB]- [DB]3 |[M:1/8] [FB] | %8
[M:3/4] [=Ec]>[Ed] [Ec][EB] [EA][EG] |[M:5/8] F-F- F3 |[M:1/8] F |[M:3/4] c>c cc [FB]c | d6 | %13
 [B,EG]>[B,EG] [B,EG][B,GB] [B,FA][B,EG] | F6[K:bass][K:treble] | [DB]>[EB] [DB][Fd] [Fc][_AB] | %16
 [Ge][Ge]- [Ge]3 G | F>B BA GA |[M:5/8] [DB]-[DB]- [DB]3 |] %19
V:2
 z3 z2 [B,,B,] | [B,,B,]>[B,,B,][B,,B,] [B,,B,][B,,B,][B,,B,] | [B,,B,] [B,,F,]2- [B,,F,]2 [D,B,] | %3
 [F,CE]>[F,B,E][F,A,E] [F,CE]>[F,B,E][F,A,E] | [B,,B,]3- [B,,B,]2 [B,,B,] | %5
 [E,B,E]>[E,B,E][E,B,E] [E,B,][E,B,][E,B,] |[M:5/8] [B,,B,][B,,F,]- [B,,F,]3 |[M:1/8] [D,B,] | %8
[M:3/4] [C,B,]>[C,B,] [C,B,][C,C] [C,C][C,B,] |[M:5/8] [F,A,]-[F,A,]- [F,A,]3 |[M:1/8] [F,A,] | %11
[M:3/4] [F,A,F]>[F,A,F] [F,A,F][F,A,F] [D,B,][K:treble][F,A,F] | [B,F]2[K:bass] B, B,2 B,, | %13
 E,>E, E,E, E,E, | B,,2 B,, B,,2 B,, | [B,,F,]>[B,,G,] [B,,F,][B,,B,] [C,A,][D,B,] | %16
 [E,B,][E,B,]- [E,B,]3 [E,B,E] | [F,B,D]>[F,DF] [F,DF][F,CE] [F,CE][F,CE] | %18
[M:5/8] [B,,B,]-[B,,B,]- [B,,B,]3 |] %19
V:3
 x6 | x6 | x6 | x6 | x6 | x6 |[M:5/8] x5 |[M:1/8] x |[M:3/4] x6 |[M:5/8] x5 |[M:1/8] x | %11
[M:3/4] x6 | z2 F F2 [B,DF] | x6 | [B,D]2[K:bass] [G,E] [F,D]2[K:treble] [B,DF] | x6 | x6 | x6 | %18
[M:5/8] x5 |] %19

